X:19060
T:Xiraldilla (CT 345)
R:Xiraldilla
C:Tradicional
S:Música Tradicional Asturiana, (C) Tello & Tito. Asturies, 2001.
S:http://pagina.de/MusTradAst <telloytito@asturies.org>
N:Xiraldilla, dictada por María Fernández Argüelles, de diez y nueve años, de Cabañaquinta, ayuntamiento de Ayer.
O:Cabañaquinta (Ayer)
A:Asturies
Z:Cancioneru de Torner 345
M:2/4
L:1/8
Q:1/4=160
W:¡Ai! qué bellas hijas tienes,
W:Periquín, Periquín,
W:so la puente del molín.
W:-Que me han robado una hija,
W:Periquín, Periquín, Pericuando,
W:que me han robado una hija
W:al fondo del jardín.
W:-Aquí te la traigo llorando,
W:Periquín, Periquín, Pericuando,
W:aquí te la traigo llorando,
W:del fondo del jardín.
K:G
|d3 e|dc BA|GG FA|G2 FA|G2 FG|Ac BA|G2 zD|
(3B-BB (3BAB|c2 (3ccB|(3AAA (3AGA|B2 GD|
(3B-BB (3BAB|c2 ce|dc BA|G2 zD|
(3BBB (3BAB|c2 (3ccB|(3AAA (3AGA|B2 GD|
(3BBB (3BAB|c2 ce|dc BA|G2 z2||


